X: 305813
M: 2/4
L: 1/8
K: G
(Bc) |\
dBge | d2Bc | dBAB | G2Bc |\
dBge | d2gb | agfe | d2 H:|\
(df) |\
(gb) gf | e2ed | ca Bg | A2Bd |\
dB ge | d2gb | eag^f | "^D.C."g2 |]
K: Bb
d2 |\
(g2e2) | c2f2 | d2B2 | fgab |\
gfec | "^D.C."B2 |]


